X: 4
T: Larry O'Gaff's
R: jig
M: 6/8
L: 1/8
K: Gmaj
d|g2G B2G|ded dBG|cdc BdB|GBd e2d|g2G B2G|ded dBG|cec BdB|AGA G2:||:d|def gag|fga afd|gag faf|ege def|gag faf|ege dBG|cec BdB|AGA G2:|


Tune 498	Setting 22660

